dist/icons/activities/4.svg

<svg width="40" height="40" viewBox="0 0 40 40" fill="none" xmlns="http://www.w3.org/2000/svg">
<path fill-rule="evenodd" clip-rule="evenodd" d="M20 1C9.80991 1 1.49341 9.02197 1.02116 19.0953H1V28.0424C1 30.7629 3.20542 32.9683 5.92594 32.9683C8.64646 32.9683 10.8519 30.7629 10.8519 28.0424V24.0212C10.8519 21.3007 8.64646 19.0953 5.92594 19.0953H2.83293C3.30342 10.0218 10.8095 2.80953 20 2.80953C29.1906 2.80953 36.6967 10.0218 37.1672 19.0953H34.0742C31.3536 19.0953 29.1482 21.3007 29.1482 24.0212V28.0424C29.1482 30.7629 31.3536 32.9683 34.0742 32.9683C35.2565 32.9683 36.3416 32.5518 37.1906 31.8574V32.0635C37.1906 34.0021 36.8623 35.2979 36.3372 36.0854C35.8554 36.8082 35.151 37.1905 34.0742 37.1905H23.1165V39H34.0742C35.6781 39 36.9844 38.3769 37.8429 37.0892C38.6582 35.8661 39.0001 34.146 39.0001 32.0635V23.1164L39.0001 20C39.0001 9.50661 30.4935 1 20 1ZM2.80953 28.0424V20.9048H5.92594C7.64708 20.9048 9.04235 22.3001 9.04235 24.0212V28.0424C9.04235 29.7635 7.64708 31.1588 5.92594 31.1588C4.20479 31.1588 2.80953 29.7635 2.80953 28.0424ZM34.0742 20.9048H37.1906V28.0424C37.1906 29.7635 35.7953 31.1588 34.0742 31.1588C32.353 31.1588 30.9577 29.7635 30.9577 28.0424V24.0212C30.9577 22.3001 32.353 20.9048 34.0742 20.9048Z" fill="#DEC377"/>
</svg>

<svg width="40" height="40" fill="none" xmlns="http://www.w3.org/2000/svg"><path fill-rule="evenodd" clip-rule="evenodd" d="M20 1C9.81 1 1.493 9.022 1.021 19.095H1v8.947a4.926 4.926 0 009.852 0v-4.02a4.926 4.926 0 00-4.926-4.927H2.833C3.303 10.022 10.809 2.81 20 2.81c9.19 0 16.697 7.212 17.167 16.285h-3.093a4.926 4.926 0 00-4.926 4.926v4.021a4.926 4.926 0 008.043 3.815v.206c0 1.94-.329 3.235-.854 4.022-.482.723-1.186 1.105-2.263 1.105H23.117V39h10.957c1.604 0 2.91-.623 3.769-1.91.815-1.224 1.157-2.944 1.157-5.027V20C39 9.507 30.494 1 20 1zM2.81 28.042v-7.137h3.116a3.116 3.116 0 013.116 3.116v4.021a3.116 3.116 0 01-6.232 0zm31.264-7.137h3.117v7.137a3.116 3.116 0 01-6.233 0v-4.02a3.116 3.116 0 013.116-3.117z" fill="#DEC377"/></svg>
